X: 460
T: Bunca Cevrinle Gönül...
C: Emin Ongan
O: Turkey
F: http://compmusic.upf.edu/node/140
N: kurdilihicazkar--sarki--aksak--bunca_cevrinle--emin_ongan
N: makam= kurdilihicazkar
N: form= sarki
N: usul= aksak = 9/8
M: 9/8
L: 1/16
K: C _B _e _A 
Q: 1/4=108
%%MIDI tuningsystem comma53
GBdg zf2g g4 b4 {a}b_3/4a | _3/4a3/2g/ f2g2 _2/4a2.b4b2 _3/4a2{g}ag  | 
w:  *  *  *  *  Bun ca  cev rin  |  *  *  *  le  gö nül  ül  | 
g2_2/4ag gf_3/4ed c4 _2/4e2f2 g2 | \
w:  *  *  *  ke *  si  *  vî râ  | 
g2 f_2/4ef2 g2g3z(3ffe d2e2  | 
w:  *  *  *  ne  o lur  vî  | 
c4 _2/4e2f2 g4 f3/2_e/dc BA | GB dgzf2gg4b4{a}b_3/4a  | 
w:  râ ne  o lur  SAZ  |  *  *  *  *  Bun ca  cev rin  | 
_3/4a3/2g/f2 g2_2/4a2 .b4 b2_3/4a2 {g}ag | \
w:  *  *  *  le  gö nül  ül  | 
g2 _2/4aggf _3/4edc4_2/4e2 f2g2  | 
w:  *  *  *  ke *  si  *  vî râ  | 
g2f_2/4e f2g2 g3z (3ffed2 e2 | c4_2/4e2 f2g4ga gfef  | 
w:  *  *  *  ne  o lur  vî  |  râ ne  o lur  SAZ  | 
g4 zf2g g4 gfa2 gf | e3/2d/ c2d2 _3/4e2.f4f2 _e2d2  | \
w:  *  Â şı kın  can   |  *  *  *  ve re cek  sev  | 
cd/c/BA/G/ G2A2 A4 AGAe dc | 
w:  *  *  *  *  *  *  di ği  bir  ta  | 
B2 {d}cB(3BBA AGA4c3/2B/ AGAB  | G4 f2g2 fg/f/(3edc B2c2 d2 | 
w:  *  *  *  *  ne  *  *  o *  lur  SAZ  |  *  bir  *  ta  | 
B2 {d}cB(3BBA AGG4ga gf_2/4ef  | g4 zf2g g4 gfa2 gf | 
w:  *  *  *  *  ne  *  *  o *  lur  SAZ  |  *  Â şı kın  can   | 
e3/2d/ c2d2 _3/4e2.f4f2 _e2d2  | cd/c/BA/G/ G2A2 A4 AGAe dc | 
w:  *  *  *  ve re cek  sev  |  *  *  *  *  *  *  di ği  bir  ta  | 
B2 {d}cB(3BBA AGA4c3/2B/ AGAB  | G4 f2g2 fg/f/(3edc B2c2 d2 | 
w:  *  *  *  *  ne  *  *  o *  lur  SAZ  |  *  bir  *  ta  | 
B2 {d}cB{c}BA AGG4f4(3ede  | d4 zfed d4 (3_2/4ede(3fef g2 | 
w:  *  *  *  *  *  ne  *  o *  lur  SAZ  |  *  Çok  *  mu dur  is  | 
g=a2f(3ffe edd4d2 _2/4e2f2  | f_3/4g{=a}gf f3/2_2/4e/de f4 fgfg fg | 
w:  *  *  *  te *  *  di *  ğim  lûtf_  |  *  *  *  *  *  e *  di *  ver sen   | 
=ab/c'/ (3bagf3/2_2/4e/ def4f2 _3/4e2d2  | \
w:  *  *  *  *  *  *  ne  *  o *  lur  ah   | 
_7/8e3/2d/c2 _2/4e2f2 g4 f4 (3_ede | 
w:  *  *  *  ne  o lur  SAZ  | 
d4zf edd4(3_2/4ede (3fefg2  | g=a2f (3ffeed d4 d2_2/4e2 f2 | 
w:  *  Çok  *  mu dur  is  |  *  *  *  te *  *  di *  ğim  lûtf_  | 
f_3/4g {=a}gff3/2_2/4e/ def4fg fgfg  | \
w:  *  *  *  *  *  e *  di *  ver sen   | 
=ab/c'/(3bag f3/2_2/4e/de f4 f2_3/4e2 d2 | 
w:  *  *  *  *  *  *  ne  *  o *  lur  ah   | 
_7/8e3/2d/ c2_2/4e2 f2g4ga gfef  | \
w:  *  *  *  ne  o lur  SAZ  | 
g4 zf2g g4 gfa2 gf | 
w:  *  Â şı kın  can   | 
e3/2d/ c2d2 _3/4e2.f4f2 _e2d2  | cd/c/BA/G/ G2A2 A4 AGAe dc | 
w:  *  *  *  ve re cek  sev  |  *  *  *  *  *  *  di ği  bir  ta  | 
B2 {d}cB(3BBA AGA4c3/2B/ AGAB  | G4 f2g2 fg/f/(3edc B2c2 d2 | 
w:  *  *  *  *  ne  *  *  o *  lur  SAZ  |  *  bir  *  ta  | 
B2 {d}cB(3BBA AGG4|
w:  *  *  *  *  ne  *  *  o *  lur   | 


